resources/icon.svg

<?xml version="1.0" encoding="UTF-8"?>
<svg width="256px" height="256px" viewBox="0 0 256 256" version="1.1" xmlns="http://www.w3.org/2000/svg" xmlns:xlink="http://www.w3.org/1999/xlink">
    <!-- Generator: Sketch 50.2 (55047) - http://www.bohemiancoding.com/sketch -->
    <title>icon</title>
    <desc>Created with Sketch.</desc>
    <defs></defs>
    <g id="icon" stroke="none" stroke-width="1" fill="none" fill-rule="evenodd">
        <g id="Matrix-toolbar">
            <g>
                <circle id="Oval" fill="#57D78D" cx="128" cy="128" r="128"></circle>
                <path d="M121.6,101.6 C121.6,87.4615104 133.06151,76 147.2,76 C161.33849,76 172.8,87.4615104 172.8,101.6 L172.8,152.8 L192,152.8 L166.4,178.4 L140.8,152.8 L160,152.8 L160,101.6 C160,94.5307552 154.269245,88.8 147.2,88.8 C140.130755,88.8 134.4,94.5307552 134.4,101.6 L134.4,152.8 C134.4,166.93849 122.93849,178.4 108.8,178.4 C94.6615104,178.4 83.2,166.93849 83.2,152.8 L83.2,101.6 L64,101.6 L89.6,76 L115.2,101.6 L96,101.6 L96,152.8 C96,159.869245 101.730755,165.6 108.8,165.6 C115.869245,165.6 121.6,159.869245 121.6,152.8 L121.6,101.6 Z" id="Shape" fill="#E4FCEC" fill-rule="nonzero"></path>
            </g>
        </g>
    </g>
</svg>

<svg width="256" height="256" viewBox="0 0 256 256" xmlns="http://www.w3.org/2000/svg"><title>icon</title><desc>Created with Sketch.</desc><g fill="none"><circle fill="#57D78D" cx="128" cy="128" r="128"/><path d="M121.6 101.6c0-14.138 11.462-25.6 25.6-25.6 14.138 0 25.6 11.462 25.6 25.6v51.2h19.2l-25.6 25.6-25.6-25.6h19.2v-51.2c0-7.069-5.731-12.8-12.8-12.8-7.069 0-12.8 5.731-12.8 12.8v51.2c0 14.138-11.462 25.6-25.6 25.6-14.138 0-25.6-11.462-25.6-25.6v-51.2h-19.2l25.6-25.6 25.6 25.6h-19.2v51.2c0 7.069 5.731 12.8 12.8 12.8 7.069 0 12.8-5.731 12.8-12.8v-51.2z" fill="#E4FCEC" fill-rule="nonzero"/></g></svg>
